X:1
T:The Leather Bottel
M:6/8
L:1/8
K:D
 z4 zF/2-G/2| A2 AA-B c| d2 c B2 A| B2 BG-F G| A2 A F2 F| G2 GE-D E|\
 F2 F D2 D| G2 G E2 E| A2 A A2F/2-G/2| A2 AA-B c| d2 c B2 A| B2 BG-F G|\
 A2 A F2 E/2F/2| G2 G EDE| F2 FD-F G| A2 z c2 z| d2 z B2 z| F2 z E2 z|\
 D3- D2 z|
